X: 100358
P: AERIAL QUADRILLE Part 5.
C: Composed by J. Scott, Sandyholm, Lockerbie
B: K\"ohler's Violin Repository, v.3, 1885 p.242 #2
Z: 2012 John Chambers <jc:trillian.mit.edu>
M: 2/4
L: 1/16
K: G
vdud !segno!|\
d2^c2d2 BB | B2^A2B2 cc | A2^G2A2B2 | GDEF GABc |\
d2^c2d2 BB | {c}B2^A2B2 cc | A2^G2A2B2 | G2z2 vg2 ||[K:D]
vAuA |\
A2f2e2d2 | e2A2{c}B2A2 | c2A2e2A2 | b2(a^g) a2A2 |\
A2f2e2d2 | e2A2{c}B2A2 | (c2A2)e2A2 | d2d2d2 AA |
A2f2e2d2 | e2A2{c}B2A2 | c2A2e2A2 | b2(a^g) a2A2 |\
A2f2e2d2 | e2A2{c}B2A2 | c2A2e2A2 | d2dd "_D.C."d2"_Fine."dd !segno!|]

%%sep 2 1 500

